src/actions/16/story-editor.svg

<svg xmlns="http://www.w3.org/2000/svg" viewBox="0 0 16 16">
  <defs id="defs3051">
    <style type="text/css" id="current-color-scheme">
      .ColorScheme-Text {
        color:#363636;
      }
      </style>
  </defs>
 <path style="fill:currentColor;fill-opacity:1;stroke:none" 
     d="M 3 2 L 3 14 L 7 14 L 7 13 L 4 13 L 4 5 L 12 5 L 12 7 L 13 7 L 13 2 L 12 2 L 12 4 L 11 4 L 11 2 L 5 2 L 5 4 L 4 4 L 4 2 L 3 2 z M 5 6 L 5 7 L 11 7 L 11 6 L 5 6 z M 5 8 L 5 9 L 8 9 L 8 8 L 5 8 z M 12 8 L 8 12 L 8 14 L 10 14 L 14 10 L 12 8 z M 11.689453 9.6894531 L 12.28125 10.28125 L 10.59375 11.96875 L 10.59375 11.984375 L 9.3125 13.28125 L 8.71875 12.6875 L 11.689453 9.6894531 z M 5 10 L 5 11 L 7 11 L 7 10 L 5 10 z "
     class="ColorScheme-Text"
     />
</svg>

<svg xmlns="http://www.w3.org/2000/svg" viewBox="0 0 16 16">
    <path d="M3 2v12h4v-1H4V5h8v2h1V2h-1v2h-1V2H5v2H4V2H3zm2 4v1h6V6H5zm0 2v1h3V8H5zm7 0-4 4v2h2l4-4-2-2zm-.31 1.69.591.591-1.687 1.688v.015l-1.281 1.297-.594-.594 2.97-2.998zM5 10v1h2v-1H5z" style="fill:currentColor;fill-opacity:1;stroke:none;color:#050505;opacity:.7"/>
</svg>
